RestoDelMundo/Dinamarca/Otras Categorias/Holstebro Bk.svg

<svg xmlns="http://www.w3.org/2000/svg" viewBox="0 0 660 660"><path fill="#323996" stroke="#323996" stroke-width="12.009" d="M452.026 89.296c37.852 12.123 87.673 20.763 152.854 20.763v9.1c0 345.861-264.55 533.958-264.55 533.958S75.782 465.02 75.782 119.159v-9.1c81.914 0 139.592-13.653 179.696-30.719"/><path fill="#323996" stroke="#323996" stroke-linejoin="round" stroke-miterlimit="3" stroke-width="12.009" d="M452.026 89.296C363.038 60.77 340.33 12.976 340.33 12.976s-18.013 37.923-84.853 66.364z"/><path fill="#fff" d="M545.721 112.713h3.034v2.655h-3.034Z"/><path fill="none" stroke="#fff" stroke-width="10.331" d="m95.764 279.788 451-164.135"/><path fill="none" stroke="#fff" stroke-width="10.341" d="M139.849 400.833 591.678 236.39"/><path fill="#ee3124" d="m601.848 110.059-4.908 125.216-455.978 165.962-44.738-122.918L552.192 112.37Z"/><path fill="none" stroke="#fff" stroke-width="4.003" d="M452.952 89.592c37.733 11.968 87.292 20.467 151.929 20.467v9.1c0 345.861-264.55 533.958-264.55 533.958S75.782 465.02 75.782 119.159v-9.1c81.167 0 138.537-13.403 178.594-30.255"/><path fill="none" stroke="#fff" stroke-linejoin="round" stroke-width="4.003" d="M254.376 79.804c67.74-28.49 85.954-66.828 85.954-66.828s22.862 48.127 112.621 76.617"/><path fill="none" stroke="#fff" stroke-width="9.231" d="M342.326 268.94v129.35l33.308 1.162V222.386l-33.308-1.167v19.734l-126.592-4.415V128.606l-33.313-1.164v205.207l33.313 1.164v-69.294ZM342.326 148.945l33.308 1.165v-28.061l-33.308-1.166Z"/><path fill="none" stroke="#fff" stroke-width="9.231" d="m307.675 493.287-33.306-1.165V287.478l33.306 1.163v175.643l93.279 3.271c66.626 2.33 62.628-58.453 62.628-58.453 0-59.297-62.628-62.817-62.628-62.817v-39.31c53.966 1.885 50.637-46.199 50.637-46.199 0-55.966-51.968-57.781-51.968-57.781l-91.949-3.214v18.591l-33.306-1.164v-49.123l33.306 1.165 80.287 2.806s92.942.465 92.942 90.909c0 0 3.331 55.582-43.972 64.922 0 0 55.964 11.617 55.964 77.907 0 0 9.995 94.296-100.937 90.415z"/><path fill="none" stroke="#323996" stroke-width="4.615" d="M342.326 268.94v129.35l33.308 1.162V222.386l-33.308-1.167v19.734l-126.592-4.415V128.606l-33.313-1.164v205.207l33.313 1.164v-69.294ZM342.326 148.945l33.308 1.165v-28.061l-33.308-1.166Z"/><path fill="none" stroke="#323996" stroke-width="4.615" d="m307.675 493.287-33.306-1.165V287.478l33.306 1.163v175.643l93.279 3.271c66.626 2.33 62.628-58.453 62.628-58.453 0-59.297-62.628-62.817-62.628-62.817v-39.31c53.966 1.885 50.637-46.199 50.637-46.199 0-55.966-51.968-57.781-51.968-57.781l-91.949-3.214v18.591l-33.306-1.164v-49.123l33.306 1.165 80.287 2.806s92.942.465 92.942 90.909c0 0 3.331 55.582-43.972 64.922 0 0 55.964 11.617 55.964 77.907 0 0 9.995 94.296-100.937 90.415z"/><path fill="#fff" d="M342.326 268.94v129.35l33.308 1.162V222.386l-33.308-1.167v19.734l-126.592-4.415V128.606l-33.313-1.164v205.207l33.313 1.164v-69.294ZM342.326 148.945l33.308 1.165v-28.061l-33.308-1.166Z"/><path fill="#fff" d="m307.675 493.287-33.306-1.165V287.478l33.306 1.163v175.643l93.279 3.271c66.626 2.33 62.628-58.453 62.628-58.453 0-59.297-62.628-62.817-62.628-62.817v-39.31c53.966 1.885 50.637-46.199 50.637-46.199 0-55.966-51.968-57.781-51.968-57.781l-91.949-3.214v18.591l-33.306-1.164v-49.123l33.306 1.165 80.287 2.806s92.942.465 92.942 90.909c0 0 3.331 55.582-43.972 64.922 0 0 55.964 11.617 55.964 77.907 0 0 9.995 94.296-100.937 90.415z"/></svg>

<svg enable-background="new 0 0 660 660" viewBox="0 0 660 660" xmlns="http://www.w3.org/2000/svg"><path d="M 452.026 89.296 c 37.852 12.123 87.673 20.763 152.854 20.763 v 9.1 c 0 345.861 -264.55 533.958 -264.55 533.958 S 75.782 465.02 75.782 119.159 v -9.1 c 81.914 0 139.592 -13.653 179.696 -30.719" fill="#323996" stroke="#323996" stroke-width="12.0093"/><path d="M 452.026 89.296 c -88.988 -28.526 -111.696 -76.32 -111.696 -76.32 s -18.013 37.923 -84.853 66.364 L 452.026 89.296 z" fill="#323996" stroke="#323996" stroke-linejoin="round" stroke-miterlimit="3" stroke-width="12.0093"/><path d="M 545.721 112.713 H 548.755 V 115.368 H 545.721 Z" fill="#fff"/><path d="M 95.764 279.788 L 546.764 115.653" fill="none" stroke="#fff" stroke-width="10.3307"/><path d="M 139.849 400.833 L 591.678 236.39" fill="none" stroke="#fff" stroke-width="10.3405"/><path d="M 601.848 110.059 L 596.94 235.275 L 140.962 401.237 L 96.224 278.319 L 552.192 112.37 Z" fill="#ee3124"/><path d="M 452.952 89.592 c 37.733 11.968 87.292 20.467 151.929 20.467 v 9.1 c 0 345.861 -264.55 533.958 -264.55 533.958 S 75.782 465.02 75.782 119.159 v -9.1 c 81.167 0 138.537 -13.403 178.594 -30.255" fill="none" stroke="#fff" stroke-width="4.0031"/><path d="M 254.376 79.804 c 67.74 -28.49 85.954 -66.828 85.954 -66.828 s 22.862 48.127 112.621 76.617" fill="none" stroke="#fff" stroke-linejoin="round" stroke-width="4.0031"/><path d="M 342.326 268.94 L 342.326 398.29 L 375.634 399.452 L 375.634 222.386 L 342.326 221.219 L 342.326 240.953 L 215.734 236.538 L 215.734 128.606 L 182.421 127.442 L 182.421 332.649 L 215.734 333.813 L 215.734 264.519 Z" fill="none" stroke="#fff" stroke-width="9.2307"/><path d="M 342.326 148.945 L 375.634 150.11 L 375.634 122.049 L 342.326 120.883 Z" fill="none" stroke="#fff" stroke-width="9.2307"/><path d="M 307.675 493.287 l -33.306 -1.165 V 287.478 l 33.306 1.163 v 175.643 l 93.279 3.271 c 66.626 2.33 62.628 -58.453 62.628 -58.453 c 0 -59.297 -62.628 -62.817 -62.628 -62.817 v -39.31 c 53.966 1.885 50.637 -46.199 50.637 -46.199 c 0 -55.966 -51.968 -57.781 -51.968 -57.781 l -91.949 -3.214 v 18.591 l -33.306 -1.164 v -49.123 l 33.306 1.165 l 80.287 2.806 c 0 0 92.942 .465 92.942 90.909 c 0 0 3.331 55.582 -43.972 64.922 c 0 0 55.964 11.617 55.964 77.907 c 0 0 9.995 94.296 -100.937 90.415 L 307.675 493.287 z" fill="none" stroke="#fff" stroke-width="9.2307"/><path d="M 342.326 268.94 L 342.326 398.29 L 375.634 399.452 L 375.634 222.386 L 342.326 221.219 L 342.326 240.953 L 215.734 236.538 L 215.734 128.606 L 182.421 127.442 L 182.421 332.649 L 215.734 333.813 L 215.734 264.519 Z" fill="none" stroke="#323996" stroke-width="4.6153"/><path d="M 342.326 148.945 L 375.634 150.11 L 375.634 122.049 L 342.326 120.883 Z" fill="none" stroke="#323996" stroke-width="4.6153"/><path d="M 307.675 493.287 l -33.306 -1.165 V 287.478 l 33.306 1.163 v 175.643 l 93.279 3.271 c 66.626 2.33 62.628 -58.453 62.628 -58.453 c 0 -59.297 -62.628 -62.817 -62.628 -62.817 v -39.31 c 53.966 1.885 50.637 -46.199 50.637 -46.199 c 0 -55.966 -51.968 -57.781 -51.968 -57.781 l -91.949 -3.214 v 18.591 l -33.306 -1.164 v -49.123 l 33.306 1.165 l 80.287 2.806 c 0 0 92.942 .465 92.942 90.909 c 0 0 3.331 55.582 -43.972 64.922 c 0 0 55.964 11.617 55.964 77.907 c 0 0 9.995 94.296 -100.937 90.415 L 307.675 493.287 z" fill="none" stroke="#323996" stroke-width="4.6153"/><path d="M 342.326 268.94 L 342.326 398.29 L 375.634 399.452 L 375.634 222.386 L 342.326 221.219 L 342.326 240.953 L 215.734 236.538 L 215.734 128.606 L 182.421 127.442 L 182.421 332.649 L 215.734 333.813 L 215.734 264.519 Z" fill="#fff"/><path d="M 342.326 148.945 L 375.634 150.11 L 375.634 122.049 L 342.326 120.883 Z" fill="#fff"/><path d="M 307.675 493.287 l -33.306 -1.165 V 287.478 l 33.306 1.163 v 175.643 l 93.279 3.271 c 66.626 2.33 62.628 -58.453 62.628 -58.453 c 0 -59.297 -62.628 -62.817 -62.628 -62.817 v -39.31 c 53.966 1.885 50.637 -46.199 50.637 -46.199 c 0 -55.966 -51.968 -57.781 -51.968 -57.781 l -91.949 -3.214 v 18.591 l -33.306 -1.164 v -49.123 l 33.306 1.165 l 80.287 2.806 c 0 0 92.942 .465 92.942 90.909 c 0 0 3.331 55.582 -43.972 64.922 c 0 0 55.964 11.617 55.964 77.907 c 0 0 9.995 94.296 -100.937 90.415 L 307.675 493.287 z" fill="#fff"/></svg>
